!!!COM: Bach, Johann Sebastian
!!!CDT: 1685/3//-1750/7/28/
!!!OTL@@DE: Herr Christ, der ein'ge Gott's Sohn
!!!AGN: 4-Part Chorale
!!!SCT: BH 303
!!!SCT: BWV 96
**harm	**root	**kern	**kern	**kern	**kern
!	!	!bass	!tenor	!alto	!soprno
*	*Iorgan	*Iorgan	*Iorgan	*Iorgan	*Iorgan
*M4/4	*M4/4	*M4/4	*M4/4	*M4/4	*M4/4
*met(c)	*met(c)	*met(c)	*met(c)	*met(c)	*met(c)
*MM60	*MM60	*MM60	*MM60	*MM60	*MM60
*k[]	*k[]	*k[]	*k[]	*k[]	*k[]
*C:	*C:	*C:	*C:	*C:	*C:
*>[A,A,B]	*>[A,A,B]	*>[A,A,B]	*>[A,A,B]	*>[A,A,B]	*>[A,A,B]
*>A	*>A	*>A	*>A	*>A	*>A
I	4FF	4C	4E	4G	4c
=1	=1	=1	=1	=1	=1
IV	4BB-	4FF	4F	8A	8c
.	.	.	.	8B	8d
I	4FF	4C	4G	4c	4e
V	4CC	4GG	8G	4B	4d
.	.	.	8F	.	.
vi	4DD	4AA	4E	4A	4c
=2	=2	=2	=2	=2	=2
vii7b	4EE	4DD	4F	4A	2B
V/vi	4AA	4EE	8E	4G#	.
.	.	.	8D	.	.
vi;	4DD;	4AA;	4C;	4E;	4A;
V/ii	4DD	4AA	4A	4c#	4e
=3	=3	=3	=3	=3	=3
ii	4GG	8D	4A	8d	4f
.	.	8E	.	8c	.
V7d	4CC	4F	4G	4B	4d
I	4FF	8E	4G	4c	4e
.	.	8C	.	.	.
V	4CC	4GG	8G	4B	4d
.	.	.	8F	.	.
=4	=4	=4	=4	=4	=4
I;	2.FF;	2.CC;	2.E;	2.G;	2.c;
=:|!	=:|!	=:|!	=:|!	=:|!	=:|!
*>B	*>B	*>B	*>B	*>B	*>B
I	4FF	8C	4E	4G	8c
.	.	8BB	.	.	8d
=5	=5	=5	=5	=5	=5
vi	4DD	4AA	4A	4c	4e
V7d/ii	4DD	4GG	4A	4c#	4e
iib	4GG	8FF	4A	4d	4f
.	.	8EE	.	.	.
ii	4GG	4DD	4A	4d	4f
!!linebreak: 2
=6	=6	=6	=6	=6	=6
Ib	2FF	4.EE	2G	4d	2g
.	.	.	.	4c	.
.	.	8FF	.	.	.
V;	4CC;	4GG;	4G;	4B;	4d;
Vb	4CC	4BB	4G	4d	4g
=7	=7	=7	=7	=7	=7
I	4FF	4C	4G	4c	4e
viioD7/ii	4FF#	4C#	4G	4B-	4e
ii	4GG	4D	4F	4A	4d
viioD7/iii	4GG#	4D#	4F#	4A	4c
=8	=8	=8	=8	=8	=8
iii	4AA	4E	8BB	4A	2B
.	.	.	8C	.	.
V7/vi	4AA	4EE	4D	4G#	.
IV;	4BB-;	4FF;	4C;	4A;	4A;
viib/ii	4FF#	4EE	4G	4c#	4e
=9	=9	=9	=9	=9	=9
ii	4GG	8DD	4A	8d	4f
.	.	8EE	.	8c	.
V7d	4CC	4FF	4G	4B	4d
Ib	4FF	8EE	4G	4c	4e
.	.	8FF	.	.	.
V	4CC	4GG	8G	4B	4d
.	.	.	8F	.	.
=10	=10	=10	=10	=10	=10
I;	2.FF;	2.CC;	2.E;	2.G;	2.c;
==	==	==	==	==	==
*-	*-	*-	*-	*-	*-
!!chor2scor: -l 2 -s 0.6 -o %b.pmx
!!!YEC: Copyright 1994, David Huron
!!!YEC: Changes/Additions 2001 by Craig Stuart Sapp
!!!YEN: United States of America
!!!SMA: 371 Bach Chorales, edited by Ludwig Erk, C.F. Peters
!!!PDT: 1850, 1865
!!!ONB: Harmony and Root analysis done manually
